X:326
T:Sonny Brogan's Mazurka
R:mazurka 32
D:Bobby Gardiner: His Master's Choice
D:Stockton's Wing
O:england
M:3/4
K:D
DF|A2 AG FA|d2 dA BA|G2 GB AG|FG EF DF|A2 AG FA|d2 dA BA|~G3a fe|d4:|
|:Ad|f2 fa gf|e2 eg fe|d2 df ed|cd Bc Ad|f2 fa gf|e2 eg fe|dc df ec|d4:|
"variations"
|:DF|~A3G FA|d3A FA|~G3B AG|FA EF DF|~A3G FA|d3A FA|~g3a fe|d4:|
Ad|fA df af|eA ce ge|d2 fd ed|cA Bc Ad|fA df af|eA ce ge|d2 fd ec|d4 Ad|
(3fgf df af|(3efe ce ge|~d3f ed|cd Bc Ad|f2 df af|(3efe ce ge|d2 df ec|d4||

